flags/bl.svg

<svg width="512" height="512" viewBox="0 0 512 512" fill="none" xmlns="http://www.w3.org/2000/svg">
<rect width="512" height="512" fill="var(--flag-palette-white, #eeeeee)"/>
<path d="M167 178C159.574 178 152.452 180.95 147.201 186.201C141.95 191.452 139 198.574 139 206H55C55 213.426 57.95 220.548 63.201 225.799C68.452 231.05 75.5739 234 83 234C83 241.426 85.95 248.548 91.201 253.799C96.452 259.05 103.574 262 111 262C111 269.426 113.95 276.548 119.201 281.799C124.452 287.05 131.574 290 139 290H373C380.426 290 387.548 287.05 392.799 281.799C398.05 276.548 401 269.426 401 262C408.426 262 415.548 259.05 420.799 253.799C426.05 248.548 429 241.426 429 234C436.426 234 443.548 231.05 448.799 225.799C454.05 220.548 457 213.426 457 206H373C373 198.574 370.05 191.452 364.799 186.201C359.548 180.95 352.426 178 345 178H167Z" fill="var(--flag-palette-mid-grey-3, #acabb1)"/>
<path fill-rule="evenodd" clip-rule="evenodd" d="M125.013 396.639C130.576 399.807 136.319 402.81 142.076 405.564L142.966 405.985L140.999 410.34L139.087 414.578L143.325 416.49C161.043 424.497 179.673 430.619 198.696 434.692C217.498 438.716 236.797 440.759 256.041 440.759C275.285 440.759 294.584 438.716 313.394 434.692C332.41 430.619 351.039 424.497 368.765 416.49L373.003 414.578L371.091 410.34L369.124 405.985L370.014 405.564C375.778 402.81 381.52 399.807 387.077 396.639L394 392.691L387.153 388.611C382.294 385.712 377.476 382.641 372.81 379.472C372.63 373.412 372.271 367.331 371.747 361.361L371.112 354.141L364.817 357.73C359.157 360.953 353.29 363.963 347.367 366.675L338.077 370.927L340.741 378.223C313.759 389.067 285.315 394.561 256.041 394.561C226.768 394.561 198.068 389.019 170.976 378.071L174.013 370.92L164.716 366.668C158.8 363.963 152.926 360.953 147.266 357.723L140.902 354.099L140.329 361.402C139.86 367.393 139.563 373.495 139.446 379.569C134.738 382.71 129.879 385.74 124.971 388.591L118 392.649L125.013 396.646L125.013 396.639Z" fill="var(--flag-palette-dark-yellow, #ffc635)"/>
<path d="M234 100V133.5L223 145L211 139V122H167V178L256 192L345 178V122H301V139L289 145L278 133.5V100H234Z" fill="var(--flag-palette-dark-yellow, #ffc635)"/>
<path d="M167 178V290C167 358 256 378.5 256 378.5C256 378.5 345 358.1 345 290V178H167Z" fill="var(--flag-palette-blue, #0052b4)"/>
<path d="M167 222.1H345V291.1H167V222.1Z" fill="var(--flag-palette-bright-red, #d80027)"/>
</svg>

<svg xmlns="http://www.w3.org/2000/svg" width="512" height="512" fill="none"><path fill="var(--flag-palette-white, #eeeeee)" d="M0 0h512v512H0z"/><path fill="var(--flag-palette-mid-grey-3, #acabb1)" d="M167 178a28 28 0 0 0-28 28H55a28 28 0 0 0 28 28 28 28 0 0 0 28 28 28 28 0 0 0 28 28h234a28 28 0 0 0 28-28 28 28 0 0 0 28-28 28 28 0 0 0 28-28h-84a28 28 0 0 0-28-28z"/><path fill="var(--flag-palette-dark-yellow, #ffc635)" fill-rule="evenodd" d="M125 396.6q8.4 4.8 17 9l1 .4-2 4.3-2 4.3 4.3 1.9a274 274 0 0 0 225.5 0l4.2-2-2-4.2-1.9-4.3 1-.4q8.6-4.2 17-9l6.9-4-6.8-4a291 291 0 0 1-14.4-9.1q-.3-9.1-1-18.1l-.7-7.3-6.3 3.6q-8.5 5-17.4 9l-9.3 4.2 2.6 7.3A226 226 0 0 1 171 378l3.1-7-9.3-4.3q-9-4-17.4-9l-6.4-3.6-.6 7.3q-.6 9-.9 18.2-7 4.7-14.4 9l-7 4z" clip-rule="evenodd"/><path fill="var(--flag-palette-dark-yellow, #ffc635)" d="M234 100v33.5L223 145l-12-6v-17h-44v56l89 14 89-14v-56h-44v17l-12 6-11-11.5V100z"/><path fill="var(--flag-palette-blue, #0052b4)" d="M167 178v112c0 68 89 88.5 89 88.5s89-20.4 89-88.5V178z"/><path fill="var(--flag-palette-bright-red, #d80027)" d="M167 222.1h178v69H167z"/></svg>
